icons/src/scalable/default/devices/drive-removable-media-symbolic.svg

<svg version="1.1" viewBox="0 0 16 16" xmlns="http://www.w3.org/2000/svg">
 <path d="m3.197 0a2.217 2.217 0 0 0-2.197 2.201v11.599c0 1.199 0.995 2.2 2.197 2.2h9.607a2.215 2.215 0 0 0 2.196-2.201v-11.599c0-1.199-0.994-2.2-2.196-2.2zm0 2h9.607c0.124 0 0.196 0.07 0.196 0.201v11.599c0 0.13-0.072 0.201-0.196 0.201h-9.607c-0.124-1e-3 -0.197-0.071-0.197-0.202v-11.599c0-0.13 0.073-0.201 0.197-0.201z" color="#bebebe" fill="#bebebe" font-weight="400" overflow="visible" style="font-feature-settings:normal;font-variant-alternates:normal;font-variant-caps:normal;font-variant-ligatures:normal;font-variant-numeric:normal;font-variant-position:normal;isolation:auto;mix-blend-mode:normal;shape-padding:0;text-decoration-color:#000000;text-decoration-line:none;text-decoration-style:solid;text-indent:0;text-orientation:mixed;text-transform:none"/>
 <path d="m8 4.6685-3 2.915v0.416h6v-0.416zm-3 4.3315v1h6v-1z" color="#000000" fill="#bebebe" font-weight="400" overflow="visible" style="font-feature-settings:normal;font-variant-alternates:normal;font-variant-caps:normal;font-variant-ligatures:normal;font-variant-numeric:normal;font-variant-position:normal;isolation:auto;mix-blend-mode:normal;shape-padding:0;text-decoration-color:#000000;text-decoration-line:none;text-decoration-style:solid;text-indent:0;text-orientation:mixed;text-transform:none;white-space:normal"/>
</svg>

<?xml version="1.0" encoding="UTF-8" standalone="no"?>
<svg
   xmlns:dc="http://purl.org/dc/elements/1.1/"
   xmlns:cc="http://creativecommons.org/ns#"
   xmlns:rdf="http://www.w3.org/1999/02/22-rdf-syntax-ns#"
   xmlns:svg="http://www.w3.org/2000/svg"
   xmlns="http://www.w3.org/2000/svg"
   xmlns:sodipodi="http://sodipodi.sourceforge.net/DTD/sodipodi-0.dtd"
   xmlns:inkscape="http://www.inkscape.org/namespaces/inkscape"
   width="16"
   height="16"
   version="1.1"
   id="svg4"
   sodipodi:docname="drive-removable-media-symbolic.svg"
   inkscape:version="0.92.5 (2060ec1f9f, 2020-04-08)">
  <metadata
     id="metadata10">
    <rdf:RDF>
      <cc:Work
         rdf:about="">
        <dc:format>image/svg+xml</dc:format>
        <dc:type
           rdf:resource="http://purl.org/dc/dcmitype/StillImage" />
      </cc:Work>
    </rdf:RDF>
  </metadata>
  <defs
     id="defs8" />
  <sodipodi:namedview
     pagecolor="#ffffff"
     bordercolor="#666666"
     borderopacity="1"
     objecttolerance="10"
     gridtolerance="10"
     guidetolerance="10"
     inkscape:pageopacity="0"
     inkscape:pageshadow="2"
     inkscape:window-width="1920"
     inkscape:window-height="1016"
     id="namedview6"
     showgrid="true"
     inkscape:zoom="41.7193"
     inkscape:cx="3.2744144"
     inkscape:cy="8.4759687"
     inkscape:window-x="0"
     inkscape:window-y="0"
     inkscape:window-maximized="1"
     inkscape:current-layer="svg4">
    <inkscape:grid
       type="xygrid"
       id="grid817" />
  </sodipodi:namedview>
  <path
     id="path4"
     style="color:#bebebe;font-weight:400;font-family:sans-serif;font-variant-ligatures:normal;font-variant-position:normal;font-variant-caps:normal;font-variant-numeric:normal;font-variant-alternates:normal;font-feature-settings:normal;text-indent:0;text-decoration:none;text-decoration-line:none;text-decoration-style:solid;text-decoration-color:#000000;text-transform:none;text-orientation:mixed;shape-padding:0;overflow:visible;isolation:auto;mix-blend-mode:normal;fill:#bebebe;fill-opacity:1"
     overflow="visible"
     font-weight="400"
     d="M 3.197,0 A 2.217,2.217 0 0 0 1,2.201 V 13.8 C 1,14.999 1.995,16 3.197,16 h 9.607 A 2.215,2.215 0 0 0 15,13.799 V 2.2 C 15,1.001 14.006,0 12.804,0 Z m 0,2 h 9.607 C 12.928,2 13,2.07 13,2.201 V 13.8 c 0,0.13 -0.072,0.201 -0.196,0.201 H 3.197 C 3.073,14 3,13.93 3,13.799 V 2.2 C 3,2.07 3.073,1.999 3.197,1.999 Z"
     inkscape:connector-curvature="0" />
  <path
     inkscape:connector-curvature="0"
     id="path6"
     style="color:#000000;font-weight:400;line-height:normal;font-family:sans-serif;font-variant-ligatures:normal;font-variant-position:normal;font-variant-caps:normal;font-variant-numeric:normal;font-variant-alternates:normal;font-feature-settings:normal;text-indent:0;text-align:start;text-decoration:none;text-decoration-line:none;text-decoration-style:solid;text-decoration-color:#000000;text-transform:none;text-orientation:mixed;white-space:normal;shape-padding:0;overflow:visible;isolation:auto;mix-blend-mode:normal;fill:#bebebe;fill-opacity:1"
     overflow="visible"
     font-weight="400"
     d="m 8,4.6685 -3,2.915 v 0.416 h 6 V 7.5835 Z M 5,9 v 1 h 6 V 9 Z"
     sodipodi:nodetypes="ccccccccccc" />
</svg>
